X:1
T:[ID 1-94a]
T:[ID 1-94a]
T:Bezeichnung standardisiert: Sesken Sesken
T:Urheber unbekannt Datum in der hier transkribierten schriftlichen Quelle: vermutlich vor 1767
C:Urheber unbekannt
C:Datum in der hier transkribierten schriftlichen Quelle: vermutlich vor 1767
L:1/8
M:2/2
K:D
V:1 treble 
V:1
 d4 e4 | f2 ed c2 A2 | d4 e4 | f2 ef d4 :: f4 g4 | a2 a2 e2 e2 | f2 f2 g2 g2 | b2 b2 a4 | d4 e4 | %9
 f2 ed c2 A2 | d4 e4 | f2 ef d4 :| %12

